X: 29769
T: O Son Do Ar
R: waltz
M: 3/4
K: Eminor
E2F2|:"Em" G3FG2|"D"A3GA2|"G"B3AG2|"Em"E3GB2|"G"d3ed2|
"A"^c3dc2|"Bm"^c2B3A|B2E2F2|"Em"G3FG2|"D"A3GA2|"G"B3AG2|
"Em"E3GA2|"C"G3FE2|"D"D3EF2|1 "Em"E6-|E2E2F2:|2 "A" E6-|E2BAGF||
|:"Em"E4F2|"D"D4F2|"Em"E3FG2|"D"A3GF2|"C"E4F2|
"D"D4F2|"Em"F2E3D|"Em"E2BAGF|"Em"E4F2|"D"D4F2|
[1 "Em"E3FG2|"A"A3GF2|"C"G3FE2|"D"F3ED2|"Em"E6-|E2 BAGF:|
[2 !fine!"Em"E3FG2|"A"A3Bc2|"C"B3AG2|"D"F3GF2|"Em" E6-|E6||

